!!!OTL: Die Mordeltern Warum betruebst du dich, mein Herz,
!!!ARE: Europa, Mitteleuropa, Deutschland
!!!YOR: 4, S. 265
!!    1666 gedruckt in Rheinfels
!!!SCT: Q0085C
!!!YEM: Copyright 1995, estate of Helmut Schaffrath.
**kern
*ICvox
*Ivox
*M4/4
*k[b-e-]
*g:
{2g
=1
2g
2b-
=2
2a
2dd
=3
4.cc
8dd
4cc
4b-
=4
2a
4r}
{4b-
=5
2g
2dd
=6
2cc
2dd
=7
4.g
8a
4b-
4b-
=8
2cc
4r}
{4b-
=9
4a
4dd
4cc
4b-
=10
2cc
4r}
{4g
=11
4b-
4b-
4cc
4cc
=12
4dd
4dd
4b-}
{4dd
=13
4cc
4b-
4a
4g
=14
2b-
2a
=15
2g}
==
!!!AGN: Ballade, Habgier, Mord, Reue, Selbstmord; geistlich
!! Tonangabe zur Ballade (aus Pommern) verweist auf dieses geistliche
!!    Lied.
!!!ONB: ESAC (Essen Associative Code) Database: BALLADE
!!!AMT: simple quadruple
!!!AIN: vox
!!!EED: Helmut Schaffrath
!!!EEV: 1.0
*-
